!!!!SEGMENT: pl-wnifc--6670-n--001-023_gall-jan-karol--piesni-polskie-na-chor-meski-z-i-11-pasterze-mili-coscie-widzieli.krn
!!!cenid: 19xx:191
!!!COM: Gall, Jan Karol
!!!COM-rismID: pe50042628
!!!CDT: 1856-1912
!!!CNT: Polish
!!!GTL: Pieśni polskie na chór męski (z. I)
!!!OTL: 11. Pasterze mili coście widzieli
!!!OMV: 023
!!!PDT:
!!!AGN:
!!!YEC: Copyright 2022 Narodowy Instytut Fryderyka Chopina (https://polishscores.org)
!!!YEM: License CC-BY-4.0 (https://creativecommons.org/licenses/by/4.0)
!!!SMS-siglum: PL-Wnifc
!!!SMS-shelfmark: 6670/n
!!!SMS-variant:
!!!SMS-altvar:
!!!SMS-shelfwork: 001-023 G
!!!NIFC-rismSourceID: 1001152877
!!!NIFC-rismChildID: 1001152912
!!!NIFC-islandoraID: nifc:213182
!!!URL-pdf-islandora: https://repozytorium.nifc.pl/islandora/object/nifc:213182/datastream/PDF/view
!!!URL-scan: https://polish.musicsources.pl/pl/lokalizacje/galeria/druki-muzyczne/16895/11 @EN{Scan on Polish Music Sources Website} @PL{Skany w portalu Dziedzictwo Muzyki Polskiej w otwartym dostępie}
!!!IIIF:
!!!ONB-nifc:
!!!OMD: Andante.
!!!AIN: 1 bass 1 tenor
!!!key: B-
**kern	**dynam	**kern	**text	**text	**dynam
*part2	*part2	*part1	*part1	*part1	*part1
*staff2	*	*staff1	*staff1	*staff1	*
*>[A,A,B]	*	*>[A,A,B]	*	*	*
*>A	*	*>A	*	*	*
*IGcoro	*	*IGcoro	*	*	*
*ICvox	*	*ICvox	*	*	*
*Ibass	*	*Itenor	*	*	*
*I"Basy.	*	*I"Tenory.	*	*	*
*I'B	*	*I'T	*	*	*
*clefF4	*	*clefGv2	*	*	*
*k[b-e-]	*	*k[b-e-]	*	*	*
*B-:	*	*B-:	*	*	*
*M3/4	*	*M3/4	*	*	*
=1	=1	=1	=1	=1	=1
*^	*	*^	*	*	*
!	!	!	!LO:TX:t=P:problem=brak przenośnika oktawowego przy kluczu	!	!	!	!
8D/	8BB-\	.	8B-/	8F\	Pa-	Co	.
8D/	8D\	.	8A/	8F\	-ste-	za	.
4E-/	4E-\	.	4G/	4G\	-rze	pa-	.
4E-/	8E-\L	.	4G/	4G\	mi-	-łac	.
.	8D\J	.	.	.	.	.	.
=2	=2	=2	=2	=2	=2	=2	=2
2.G/	2.C\	.	2.e-/	2.c\	-li,	miał,	.
=3	=3	=3	=3	=3	=3	=3	=3
8F/	8D\	.	8d/	8B-\	coś-	gdzie	.
8F/	8D\	.	8d/	8B-\	-cie	go-	.
4G/	4E-\	.	4c/	4B-\	wi-	-spo-	.
8F/L	4F\	.	4c/	4A\	-dzie-	-dą	.
8E-/J	.	.	.	.	.	.	.
=4	=4	=4	=4	=4	=4	=4	=4
2D/	2BB-\	.	2B-/	2B-\	-li?	stał?	.
4r	4ryy	.	4r	4ryy	.	.	.
!!LO:PB:g=original
=5:|!	=5:|!	=5:|!	=5:|!	=5:|!	=5:|!	=5:|!	=5:|!
*>B	*	*	*>B	*	*	*	*
8F/	8F\	p	8A/	8F\	Wi-	Szo-	p
8F/	8F\	.	8B-/	8G\	-dzie-	-pa	.
.	.	<	.	.	.	.	<
4F/	4F\	.	4c/	4A\	-liś-	byd-	./
4F/	8F\L	[	4c/	4A\	-my	-łu	[
.	8E-\J	.	.	.	.	.	.
=6	=6	=6	=6	=6	=6	=6	=6
8F/	8D\	.	8B-/	8B-\	ma-	przy-	.
8F/	8F\	.	8c/	8A\	-leń-	-zwo-	.
4F/	4BB-\	.	4d/	4B-\	-kie-	-i-	.
4F/	4BB-\	<	4d/	4B-\	-go	-ta	<
=7	=7	=7	=7	=7	=7	=7	=7
8F/	8C\	[	8e-/	8B-\	Je-	i	[
8F/	8D\	.	8d/	8B-\	-zu-	to	.
4G/	4E-\	.	4c/	4B-\	-sa	je-	.
4F/	8F\L	.	4c/	4A\	na-	-szcze	.
.	8E-\J	.	.	.	.	.	.
=8	=8	=8	=8	=8	=8	=8	=8
8F/	8D\	.	8B-/	8B-\	-ro-	źle	.
8F/	8F\	.	8c/	8A\	-dzo-	po-	.
4F/	4BB-\	<	4d/	4B-\	-ne-	-kry-	<
4F/	4AA-X\	[	4d/	4c\	-go,	-ta	[
!!LO:LB:g=original
=9	=9	=9	=9	=9	=9	=9	=9
8G/	4GG\	f	8e-/	4Bn\	sy-	pa-	f
8F/	.	.	8d/	.	-na	-ła-	.
4E-/	4C\	<	4c/	8c\L	Bo-	-cem	<
.	.	.	.	8B-X\J	.	.	.
4F/	8F\L	[	4c/	4A\	-że-	by-	[
.	8E-\J	.	.	.	.	.	.
=10	=10	=10	=10	=10	=10	=10	=10
(2F/	(2D\	>	2.f/	(8A\L	-go,	-ła,	>
.	.	.	.	8c\	.	.	.
.	.	.	.	8B-\	.	.	.
.	.	.	.	8A\	.	.	.
4D/)	8BB-\L	.	.	8B-\	.	.	.
.	8BBn\J)	]	.	8A-X\J)	.	.	]
=11	=11	=11	=11	=11	=11	=11	=11
8E-/	8C\	.	8e-/	8G\	sy-	pa-	.
8F/	8D\	.	8d/	8B-X\	-na	-ła-	.
4G/	4E-\	p	4c/	4B-\	Bo-	-cem	p
8F/L	4F\	.	4c/	4An\	-że-	by-	.
8E-/J	.	.	.	.	.	.	.
=12	=12	=12	=12	=12	=12	=12	=12
2D/	2BB-\	.	2B-/	2B-\	-go.	-ła.	.
4r	4ryy	.	4r	4ryy	.	.	.
*v	*v	*	*v	*v	*	*	*
==	==	==	==	==	==
*-	*-	*-	*-	*-	*-
!!!system-decoration: [(*)]
!!!ENC: Berenika Jozajtis
!!!END: 2023-05-03
!!!EED: Andrzej Kubiczek
!!!EEV: 2025-03-11
